public/icons/picto-fioul.svg

<svg fill="none" height="17" viewBox="0 0 9 17" width="9" xmlns="http://www.w3.org/2000/svg"><path d="m4.49602 16.3533h.06667c.77446-.0134 1.53231-.2716 2.19742-.7485s1.21405-1.1558 1.5916-1.9684c.37755-.8127.57042-1.7304.55925-2.661s-.22601-1.84123-.62291-2.64043l-3.57387-7.1966c-.03418-.06895-.08269-.12606-.14075-.165725-.05807-.039662-.12371-.060519-.1905-.060536h-.00532c-.06773.00119-.13401.023791-.19216.065535-.05815.041746-.10611.101156-.13908.172256l-3.4 7.31776c-.374269.80666-.5666996 1.71684-.5582102 2.64034.0084895.9235.2175962 1.8283.6066032 2.6248.389007.7966.944407 1.4572 1.611237 1.9165.66682.4593 1.42193.7013 2.19054.7021zm3.12954-7.54402c.32751.65948.50481 1.41092.51403 2.17882.00923.7679-.14994 1.5252-.46147 2.1958-.31154.6706-.7645 1.2308-1.31333 1.6244-.54883.3935-1.17418.6066-1.81324.6177-.63907.0111-1.26934-.1802-1.82742-.5545-.55807-.3743-1.02427-.9185-1.35182-1.578s-.504875-1.4109-.514137-2.1788.149867-1.52522.461377-2.19581l2.78974-6.00445.28432-.61275z" fill="#3153ce"/></svg>

<svg width="9" height="17" viewBox="0 0 9 17" fill="none" xmlns="http://www.w3.org/2000/svg">
<path d="M4.49602 16.3533H4.56269C5.33715 16.3399 6.095 16.0817 6.76011 15.6048C7.42522 15.1279 7.97416 14.449 8.35171 13.6364C8.72926 12.8237 8.92213 11.906 8.91096 10.9754C8.89979 10.0448 8.68495 9.13417 8.28805 8.33497L4.71418 1.13837C4.68 1.06942 4.63149 1.01231 4.57343 0.972645C4.51536 0.932983 4.44972 0.912126 4.38293 0.912109H4.37761C4.30988 0.913299 4.2436 0.9359 4.18545 0.977644C4.1273 1.01939 4.07934 1.0788 4.04637 1.1499L0.64637 8.46766C0.272101 9.27432 0.0796704 10.1845 0.0881598 11.108C0.0966493 12.0315 0.305756 12.9363 0.694763 13.7328C1.08377 14.5294 1.63917 15.19 2.306 15.6493C2.97282 16.1086 3.72793 16.3506 4.49654 16.3514L4.49602 16.3533ZM7.62556 8.80928C7.95307 9.46876 8.13037 10.2202 8.13959 10.9881C8.14882 11.756 7.98965 12.5133 7.67812 13.1839C7.36658 13.8545 6.91362 14.4147 6.36479 14.8083C5.81596 15.2018 5.19061 15.4149 4.55155 15.426C3.91248 15.4371 3.28221 15.2458 2.72413 14.8715C2.16606 14.4972 1.69986 13.953 1.37231 13.2935C1.04476 12.634 0.867435 11.8826 0.858173 11.1147C0.848911 10.3468 1.00804 9.58948 1.31955 8.91889L4.10929 2.91444L4.39361 2.30169L7.62556 8.80928Z" fill="#3153CE"/>
</svg>
